X: 5
T:Mona's Delight
M:4/4
L:1/4
S:Shetland (play as if dotted/lilts)
K:G
 D|G G/2A/2 B A/2G/2|A A/2B/2 c B/2A/2|G G/2B/2 d B/2G/2|F/2A/2 D F/2A/2
 D| G G/2A/2 B A/2G/2| A A/2B/2 c B/2A/2|B/2d/2B/2G/2 A/2c/2A/2F/2|G G G
||:B/2c/2| d d/2c/2B/2c/2d|c c/2B/2A/2B/2 c| B B/2A/2G/2A/2 B| A/2G/2F/2
E/2 D/2E/2F/2D/2| B B/2A/2G/2A/2 B|c c/2B/2A/2B/2 c|B/2A/2G/2B/2 A/2G/2F
/2A/2|GGG||:
